X: 15568
T: Glorious Summer Of '08, The
R: reel
M: 4/4
K: Dmajor
FA A2 FABd|c3 B ABcA|B2 fB faec|BF F2 BFEF|
DA A2 DABc|d2 fd edBA|G2 BG =cGBG|dBAF D4:|
|:faaf a2 fa|bf f2 afef|dffe f2 ef|defd eBBA|
GB B2 GABG|AE E2 AEFD|G2 BG =cGBG|dBAF D4:|

